!!!!SEGMENT: pl-wtm--a-45-490_mucman-boleslaw--panna-andzia-ma-wychodne-prosze-panstwa-raz-na-tydzien.krn
!!!cenid: 19xx:23
!!!COM: Mucman, Bolesław
!!!COM-rismID: pe50055003
!!!CDT: 1905-1942
!!!CNT: Polish
!!!OTL: Panna Andzia ma wychodne/Proszę państwa, raz na tydzień
!!!PDT:
!!!AGN: Secular
!!!YEC: Copyright 2022 Narodowy Instytut Fryderyka Chopina (https://polishscores.org)
!!!YEM: License CC-BY-4.0 (https://creativecommons.org/licenses/by/4.0)
!!!SMS-siglum: PL-Wtm
!!!SMS-shelfmark: A.45.490
!!!SMS-variant:
!!!SMS-altvar:
!!!SMS-shelfwork: W
!!!NIFC-rismSourceID: 1001220933
!!!NIFC-rismChildID: 1001220933
!!!NIFC-islandoraID: pl-wtm:98137
!!!URL-pdf-islandora: https://repozytorium.nifc.pl/islandora/object/pl-wtm%3A98137/datastream/PDF/view
!!!URL-scan: https://polish.musicsources.pl/pl/lokalizacje/galeria/druki-muzyczne/22670/2 @EN{Scan on Polish Music Sources Website} @PL{Skany w portalu Dziedzictwo Muzyki Polskiej w otwartym dostępie}
!!!IIIF:
!!!ONB-nifc:
!!!AIN: 1 canto 2 forte
!!!key: A
**kern	**kern	**dynam	**kern	**text	**text
*part3	*part2	*part2	*part1	*part1	*part1
*staff3	*staff2	*	*staff1	*staff1	*staff1
*I"	*I"	*	*I"	*	*
*I'pf	*I'pf	*	*I'V	*	*
*I'pf	*I'pf	*	*I'V	*	*
*ICklav	*ICklav	*	*ICvox	*	*
*Iforte	*Iforte	*	*Icanto	*	*
*clefG2	*clefG2	*	*clefG2	*	*
*k[f#c#g#]	*k[f#c#g#]	*	*k[f#c#g#]	*	*
*A:	*A:	*	*A:	*	*
*M2/4	*M2/4	*	*M2/4	*	*
*>[A,A1,A,A2]	*	*	*	*	*
=1	=1	=1	=1	=1	=1
*>A	*	*	*	*	*
4.e\ 4.b 4.dd	8r	mf	2r	.	.
.	(16.ee\LL	.	.	.	.
.	32ee\JJk	<	.	.	.
.	8eee\L	.	.	.	.
8e\ 8b 8dd	8ee\J)	.	.	.	.
=2	=2	=2	=2	=2	=2
4.e/ 4.a 4.cc#	8r	.	2r	.	.
.	(16.ee\LL	.	.	.	.
.	32ee\JJk	.	.	.	.
.	8eee\L	.	.	.	.
8e/ 8a 8cc#	8ee\J)	.	.	.	.
=3	=3	=3	=3	=3	=3
4.e/ 4.a 4.ccn	8r	.	2r	.	.
.	(16.ee\LL	.	.	.	.
.	32ee\JJk	.	.	.	.
.	8eee\L	.	.	.	.
8e/ 8a 8cc	8ee\J)	.	.	.	.
=4	=4	=4	=4	=4	=4
4e/ 4g# 4b	8r	.	2r	.	.
.	(16.ee\LL	.	.	.	.
.	32ee\JJk	.	.	.	.
8r	8eee\)	[	.	.	.
*clefF4	*	*	*	*	*
(<8EE^/	8r	.	.	.	.
=5||	=5||	=5||	=5||	=5||	=5||
8AA\L)	(>16.c#/LL	<	16.c#/	1. Pro-	2. Pro-
.	32d/K	.	32d/	-szę	-szę
8E\J 8A 8c#	16.d#X/	.	16.d#X/	pań-	pań-
.	32e/JJk	.	32e/	-stwa,	-stwa
(<8C#/L	16.f#/LL	.	16.f#/	Raz	Fe-
.	32e/K	.	32e/	na	-luś
8Cn/J	16.d#/	.	16.d#/	ty-	to
.	32e/JJk)	[	32e/	-dzień	nie
!!LO:LB:g=original
=6	=6	=6	=6	=6	=6
8BB\L)	8d'/L	.	8d/	świę-	ża-
8E\J 8G# 8d	8e'/J	.	8e/	-to	-den
8E\L 8G# 8d	8b'/L	.	8b\	by-	pę-
8EE\J	8e'/J	.	8e/	-wa	-tak!
=7	=7	=7	=7	=7	=7
8GG#X\L	8d'/L	.	8d/	Pan-	Hi-
8E\J 8G# 8d	8e'/J	.	8e/	-na	-pek
8E\L 8G# 8d	8b'/L	.	8b\	An-	War-
8EE\J	8e'/J	.	8e/	-dzie	-jat
=8	=8	=8	=8	=8	=8
8AA\L	8c#'/L	.	8c#/	jest	przy-
8E\J 8A 8c#	8e'/J	.	8e/	szczę-	-nim
8E\L 8A 8c#	8cc#'/L	.	8cc#\	-śli-	mię-
8EE\J	8a'/J	.	8a/	-wa!	-ta!
=9	=9	=9	=9	=9	=9
8AA\L	(>16.c#/LL	<	16.c#/	Już	Czę-
.	32d/K	.	32d/	od	-sto
8E\J 8A 8c#	16.d#X/	.	16.d#X/	ra-	w żół-
.	32e/JJk	.	32e/	-na	-tych
(<8C#/L	16.f#/LL	.	16.f#/	się	bu-
.	32e/K	.	32e/	pu-	-tach
8Cn/J	16.d#/	.	16.d#/	-dru-	by-
.	32e/JJk)	[	32e/	-je	-wa
=10	=10	=10	=10	=10	=10
8BB\L)	8dn'/L	.	8dn/	i	i
8E\J 8G# 8d	8e'/J	.	8e/	się	w smo-
8E\L 8G# 8d	8b'/L	.	8b\	krzą-	-kin-
8EE\J	8e'/J	.	8e/	-ta	-gu
=11	=11	=11	=11	=11	=11
8GG#X\L	8d'/L	.	8d/	Już	Na
8E\J 8G# 8d	8e'/J	.	8e/	nie	dan-
8E\L 8G# 8d	8b'/L	.	8b\	sprzą-	-cin-
8EE\J	8e'/J	.	8e/	-ta	-gu
!!LO:LB:g=original
=12	=12	=12	=12	=12	=12
(8AA/L	2c#/ 2a	.	2a/	dziś!	z nią!
16BB/L	.	.	.	.	.
16Cn/JJ	.	.	.	.	.
8C#X/L)	.	.	.	.	.
8AAA^/J	.	.	.	.	.
=13	=13	=13	=13	=13	=13
8DD\L 8D	(>16.d/LL 16.f#	f	16.f#/	Ma	An-
.	32f#/K 32a	.	32a/	na	-dzi
8F#\J 8A 8d	16.e#X/ 16.g#	.	16.g#/	ka-	pa-
.	32f#/JJk 32a	.	32a/	-pe-	-ni
8F#\L 8A 8d	8f#/L 8b	.	8b\	-lu-	aż
8DD\J	8f#/J 8a	.	8a/	-szu	zem-
=14	=14	=14	=14	=14	=14
8AA\L	8c#/L 8e	.	8e/	piór-	-dla-
8E\J 8A	[8c#/J [8a	.	[8a/	-ko!	-ła
8E\L 8A	4c#/]) 4a]	.	4a/]	.	.
8EE\J	.	.	.	.	.
=15	=15	=15	=15	=15	=15
8GG#\L	(16.B/LL 16.d	.	16.d/	Ca-	Kie-
.	32d/K 32f#	.	32f#/	-łe	-dy
!LO:TX:t=P:problem= 8d w nawiasie	!	!	!	!	!
8E\J 8G# 8d	16.d/ 16.e#X	.	16.e#X/	o	w A-
.	32d/JJk 32f#	.	32f#/	tem	-drji
!LO:TX:t=P:problem=8d w nawiasie	!	!	!	!	!
8E\L 8G# 8d	8d/L 8g#	.	8g#/	wie	ją
8EE\J	8d/J) 8f#	.	8f#/	pod-	spot-
=16	=16	=16	=16	=16	=16
8AA\L	8A/L 8c#	.	8c#/	-wór-	-ka-
8E\J 8A	[8c#/J [8e	.	[8e/	-ko	-ła!
8E/L 8A	4c#/] 4e]	.	4e/]	.	.
(<8EE/J	.	.	.	.	.
=17	=17	=17	=17	=17	=17
8AA\L)	(>16.c#/LL	.	16.c#/	Przez	Ze-
.	32e/K	.	32e/	luf-	-zo-
8E\J 8A 8c#	16.d#X/	.	16.d#X/	-ci-	-wa-
.	32e/JJk	.	32e/	-ki	-ła
(<8C#/L	8f#/L	.	8f#/	wy-	na
8Cn/J	8e/J)	.	8e/	-glą-	nią
!!LO:LB:g=original
=18	=18	=18	=18	=18	=18
8BB\L)	(8B/L 8d	.	8d/	-da-	wście-
!LO:TX:t=P:problem=8G# w nawiasie	!	!	!	!	!
8E\J 8G#	8G#/J) 8B	.	8B/	-ją	-kła
8E\L 8G# 8d	8r	.	8r	.	.
8EE\J	(8d/ 8b	.	8b\	Śpie-	Ta
=19	=19	=19	=19	=19	=19
8BB\L	8B/L 8g#	.	8g#/	-wa-	rze-
!LO:TX:t=P:problem=8G# w nawiasie	!	!	!	!	!
8E\J 8G#	8G#/J) 8e	.	8e/	-ją	-kła:
8E\L 8G# 8d	8r	.	8r	.	.
8EE\J	(8e/ 8cc#	.	8cc#\	z nią	par-
=20	=20	=20	=20	=20	=20
(8AA\L 8A	[4c#/) [4a	.	[4a/	wraz:	-don!
16GG#\L 16G#	.	.	.	.	.
16FF#\JJ 16F#	.	.	.	.	.
8EE/) 8E	8c#/L] 8a]	.	8a/]	.	.
8r	[8e/J	.	8e/	Dziś	.
=21!|:	=21!|:	=21!|:	=21!|:	=21!|:	=21!|:
!!!OMD: Refrain
8AA\L	8e/L] 8cc#	.	8cc#\	pan-	.
8E\J 8A 8c#	16r	.	16r	.	.
.	(16b/Jk	.	16b\	-na	.
8E\L 8A 8c#	16.a/LL	.	16.a/	An-	.
.	32g#/K	.	32g#/	-dzia	.
8EE\J	16.a/	.	16.a/	ma	.
.	32f#/JJk	.	32f#/	wy-	.
=22	=22	=22	=22	=22	=22
8BB\L	8d/L 8g#	.	8g#/	-chod-	.
8G#\J 8B	[8d/J)	.	[8d/	-ne	.
8G#\L 8B	8d/L]	.	8d/]	.	.
8EE\J	(16.d/L 16.g#	.	16.g#/	Dziś	.
.	32d/JJk 32gn	.	32gn/	jest	.
!!LO:PB:g=original
=23	=23	=23	=23	=23	=23
!	!LO:TX:t=P:problem=# w nawiasie	!	!	!	!
8BB\L	8d/L 8g#X	.	8g#/	sa-	.
8G#\J 8B	[8d/J)	.	[8d/	-ma	.
8G#\L 8B	8d/L]	.	8d/]	.	.
(<8EE^\J	(16.d/L 16.f#	.	16.f#/	wiel-	.
.	32d/JJk 32fn	.	32fn/	-ka	.
=24	=24	=24	=24	=24	=24
8AA\L)	8c#/L 8f#	.	8f#/	da-	.
8E\J 8A	[8c#/J)	.	[8c#/	-ma	.
16AA\LL 16A	8c#/L]	.	8c#/]	.	.
(16EE\	.	.	.	.	.
16FF#\	[8e/J	.	8e/	Dziś	.
16GG#\JJ	.	.	.	.	.
=25	=25	=25	=25	=25	=25
8AA\L)	8e/L] 8cc#	.	8cc#\	ma	.
8E\J 8A 8c#	16r	.	16r	.	.
.	(16b/Jk	.	16b\	jak	.
8E\L 8A 8c#	16.a/LL	.	16.a/	pa-	.
.	32g#/K	.	32g#/	-nie	.
!	!LO:N:vis=16	!	!	!	!
8EE\J	16.a/	.	16.a/	piór-	.
.	32f#/JJk	.	32f#/	-ko	.
=26	=26	=26	=26	=26	=26
8BB\L	8d/L) 8g#	.	8g#/	mo-	.
8G#\J 8B	[8d/J	.	[8d/	-dne	.
8G#\L 8B	8d/L]	.	8d/]	.	.
8EE\J	16.d/L 16.g#	.	16.g#/	Dziś	.
.	32d/JJk 32gn	.	32gn/	na	.
=27	=27	=27	=27	=27	=27
8BB\L	8d/L 8g#	.	8g#/	Chło-	.
8E\J 8G# 8d	8e/J	.	8e/	-dnej	.
8E\L 8G#\	8d/L 8b	.	8b\	bę-	.
8EE\J	8e/J 8cc#	.	8cc#\	-dzie	.
!!LO:LB:g=original
=28	=28	=28	=28	=28	=28
8AA/L 8A	[4c#/ [4cc#	.	[4a/	bal!	.
8EE/J 8E	.	.	.	.	.
8AAA/ 8AA	16.c#/LL] 16.cc#]	.	16.a/]	.	.
.	32a/K	.	32a/	Już	.
8r	16.a/	.	16.a/	przy-	.
.	32a/JJk	.	32a/	-szedł	.
=29	=29	=29	=29	=29	=29
8DD\L	8a/L	.	8a/	Jó-	.
8F#\J 8A 8d	[8a/J	.	[8a/	-zio	.
8Fn\L 8A 8d	16.a/LL]	.	32a/]	.	.
.	.	.	16a/	i	.
.	32a/K	.	32a/	przy-	.
8DD\J	16.a/	.	16.a/	-nióxł	.
.	32a/JJk	.	32b\	pą-	.
=30	=30	=30	=30	=30	=30
8AA\L	8e/L 8cc#	.	8cc#\	-czki	.
8E\J 8A	[8c#/J [8e	.	[8e/	.	.
(<8C#/L	16.c#/LL] 16.e]	.	16.e/]	.	.
.	32e/K	.	32e/	Ca-	.
8Cn/J	16.e/	.	16.e/	-łu-	.
.	32f#/JJk	.	32e/	-je	.
=31	=31	=31	=31	=31	=31
*	*^	*	*	*	*
8BB\L)	8f#/L	[4d\	.	8f#/	rą-	.
8E\J 8G#	[8e/J	.	.	[8e/	-czki!	.
8E\L 8G#	16.e/LL]	16.d/]	.	16.e/]	.	.
.	32d/K 32b	32ryy	.	32b\	Ca-	.
8EE\J	16.d/ 16.b	8ryy	.	16.b\	-łu-	.
.	32B/JJk 32g#	.	.	32g#/	-je	.
*	*v	*v	*	*	*	*
=32	=32	=32	=32	=32	=32
8AA\L	8c#/L 8f#	.	8f#/	rą-	.
8E\J 8A	[8c#/J [8e	.	[8e/	-czki!	.
8E\L 8A	16.c#/LL] 16.e]	.	16.e/]	.	.
.	32e/K	.	32e/	Wia-	.
8AA\J	16.e/	.	16.e/	-do-	.
.	32f#/JJk	.	32f#/	-mo	.
!!LO:LB:g=original
=33	=33	=33	=33	=33	=33
8DD\L	8d/L 8f#	.	8f#/	da-	.
8F#\J 8A 8d	(8f#/J [8a	.	[8a/	-my	.
8Fn\L 8A 8d	16.fn/LL) 16.a]	.	16.a/]	.	.
.	32a/K	.	32a/	by-	.
8DD\J	16.a/	.	16.a/	-wa-	.
.	32a/JJk	.	32b\	-ją	.
=34	=34	=34	=34	=34	=34
8AA\L	8e/L 8cc#	.	8cc#\	gło-	.
8E\J 8A	[8c#/J [8e	.	[8e/	-dne	.
(<8C#/L	16.c#/LL] 16.e]	.	16.e/]	.	.
.	32e/K	.	32e/	Chcesz	.
8Cn/J	16.e/	.	16.e/	zdo-	.
.	32f#/JJk	.	32f#/	-być	.
=35	=35	=35	=35	=35	=35
8BB\L)	(8d/L 8f#	.	8f#/	ser-	.
8E\J 8G# 8d	8e/J)	.	8e/	-ce	.
8E\L 8G# 8d	(8e/L	.	8e/	z pą-	.
8EE\J	8d/J) 8b	.	8b\	-czkiem	.
=36	=36	=36	=36	=36	=36
(8AA\L 8A	4.c#/ 4.a	.	4.a/	wal~	.
16GG#\L 16G#	.	.	.	.	.
16FF#\JJ 16F#	.	.	.	.	.
8EE/) 8E	.	.	.	.	.
8r	8e/	.	8e/	Więc	.
=37	=37	=37	=37	=37	=37
8AA\L	8e/L 8cc#	.	8cc#\	dziś,	.
8E\J 8A 8c#	16r	.	16r	.	.
.	(16b/Jk	.	16b\	roz-	.
8E\L 8A 8c#	16.a/LL	.	16.a/	-ryw-	.
.	32g#/K	.	32g#/	-ki	.
8EE\J	16.a/	.	16.a/	róż-	.
.	32f#/JJk)	.	32f#/	-ne	.
!!LO:LB:g=original
=38	=38	=38	=38	=38	=38
8BB\L	8d/L 8g#	.	8g#/	go-	.
8G#\J 8B	[8d/J	.	[8d/	-dne	.
8G#\L 8B	8d/L]	.	8d/]	.	.
8EE\J	16.d/L 16.g#	.	16.g#/	No	.
.	32d/JJk 32gn	.	32gn/	i	.
=39	=39	=39	=39	=39	=39
8BB\L	8d/L 8g#	.	8g#/	"czy-	.
8G#\J 8B	[8d/J	.	[8d/	-sta"	.
8G#\L 8B	8d/L]	.	8d/]	.	.
8EE\J	16.d/L 16.f#	.	16.f#/	o-	.
.	32d/JJk 32fn	.	32fn/	-czy-	.
=40	=40	=40	=40	=40	=40
8AA\L	8c#/L 8f#X	.	8f#X/	-wi-	.
8E\J 8A	[8c#/J	.	[8c#/	-sta	.
16E\LL 16A	8c#/L]	.	8c#/]	.	.
(16EE\	.	.	.	.	.
16FF#\	[8e/J	.	8e/	Dziś	.
16GG#\JJ	.	.	.	.	.
=41	=41	=41	=41	=41	=41
8AA\L)	8e/] 8cc#	.	8cc#\	pan-	.
8EE\J 8AA 8C#	16r	.	16r	.	.
.	16b\	.	16b\	-na	.
8E\L 8A 8c#	16.a/LL	.	16.a/	An-	.
.	32g#/K	.	32g#/	-dzia	.
8EE\J	16.a/	.	16.a/	ma	.
.	32f#/JJk	.	32f#/	wy-	.
=42	=42	=42	=42	=42	=42
8BB\L	8d/L 8g#	.	8g#/	-cho-	.
8G#\J 8B	[8d/J	.	[8d/	-dne	.
8G#\L 8B	8d/L]	.	8d/]	.	.
(<8EE\J	16.d/L 16.g#	.	16.g#/	Dziś	.
.	32d/JJk 32gn	.	32gn/	na	.
!!LO:LB:g=original
=43	=43	=43	=43	=43	=43
8BB\L)	(8d/L 8g#X	.	8g#X/	Chło-	.
8G#\J 8B	8e/J)	.	8e/	-dnej	.
8G#\L 8B	(8d/L 8b	.	8b\	wiel-	.
8EE\J	8e/J) 8cc#	.	8cc#\	-ki	.
=44	=44	=44	=44	=44	=44
*>A1	*	*	*	*	*
(8AA\L 8E	8c#/L 8e 8a	.	8a/	bal!	.
8BB\J 8F#	16.d#X/L 16.b	.	8r	.	.
.	32f#/JJk	.	.	.	.
8EE/) 8E	8dn/L 8g#	.	8r	.	.
8r	(8e/J	.	8e/	Dziś	.
=45:|!	=45:|!	=45:|!	=45:|!	=45:|!	=45:|!
*>A2	*	*	*	*	*
8AA/ 8E	8c#/) 8e 8a	.	8a/	bal!	.
8r	(16.ee\LL	.	8r	.	.
.	32ee\JJk	.	.	.	.
8r	8eee\L	.	4r	.	.
*clefG2	*	*	*	*	*
!	!	!LO:DY:b=2	!	!	!
8e/ 8a 8cc#	8ee\J)	p	.	.	.
=46	=46	=46	=46	=46	=46
4.e/ 4.b 4.dd	8r	.	2r	.	.
.	(16.ee\LL	.	.	.	.
.	32ee\JJk	.	.	.	.
.	8eee\L	.	.	.	.
8d/ 8g# 8b	8ee\J)	.	.	.	.
=47	=47	=47	=47	=47	=47
4e/ 4a 4cc#	8r	.	2r	.	.
.	(16.ee\LL	.	.	.	.
.	32ee\JJk	.	.	.	.
8r	8eee\L)	.	.	.	.
*clefF4	*	*	*	*	*
8AA^/ 8E	8c#^\J 8e 8a	f	.	.	.
=48	=48	=48	=48	=48	=48
4DD^/ 4D	8d^>/L 8f# 8b	.	2r	.	.
.	8d^>/J 8f# 8b	.	.	.	.
4EE^/ 4E	8B^>/L 8d 8g#	.	.	.	.
.	8B^>/J 8d 8g#	.	.	.	.
=49	=49	=49	=49	=49	=49
8AA/L 8A	8c#/L 8e 8a	.	2r	.	.
8EE/J 8E	(8e/J 8g# 8b 8ee	.	.	.	.
8AAA/ 8AA	8a\) 8cc# 8ee 8aa	.	.	.	.
8r	8r	.	.	.	.
==	==	==	==	==	==
*-	*-	*-	*-	*-	*-
!!!system-decoration: s1{(s2,s3)}
!!!RDF**kern: > = above
!!!RDF**kern: < = below
!!!ENC: Anastazja Marusiak
!!!END: 2023-08-29
!!!RDF**kern: i = editorial accidental
!!!ENC: Leszek Kubiak
!!!END: 2023-09-29
